usr/share/icons/biglinux-icons-material/16/actions/transform-affect-stroke.svg

<svg xmlns="http://www.w3.org/2000/svg" viewBox="0 0 16 16"><path d="M2 2v2h10v7h2V2H2zm0 4v1h7v4h1V6H2z" style="fill:currentColor;fill-opacity:1;stroke:none;color:#dedede"/><path d="m5.17 14.33-.707-.707 1.621-1.621H2.008v-1h4.076L4.463 9.381l.707-.707 2.828 2.828-.707.707Z" style="fill:currentColor;fill-opacity:1;stroke:none;color:#3daee9"/></svg>

<svg xmlns="http://www.w3.org/2000/svg" viewBox="0 0 16 16">
  <defs id="defs3051">
    <style type="text/css" id="current-color-scheme">
      .ColorScheme-Text {
        color:#363636;
      }
      .ColorScheme-Highlight {
        color:#3daee9;
      }
      </style>
  </defs>
 <path 
     style="fill:currentColor;fill-opacity:1;stroke:none" 
     d="M 2 2 L 2 4 L 12 4 L 12 11 L 14 11 L 14 2 L 2 2 z M 2 6 L 2 7 L 9 7 L 9 11 L 10 11 L 10 6 L 2 6 z "
     class="ColorScheme-Text"/>
  <path
     style="fill:currentColor;fill-opacity:1;stroke:none" 
     d="m 5.17,14.33 -0.707,-0.707 1.621,-1.621 -4.076,0 0,-1 4.076,0 L 4.463,9.381 5.17,8.674 7.998,11.502 7.291,12.209 Z"
     class="ColorScheme-Highlight"/>
</svg>
